packages/kaspersky-hexa-ui-icons/src/iconsSVGs/16/Paste1.svg

<svg width="16" height="16" viewBox="0 0 16 16" fill="none" xmlns="http://www.w3.org/2000/svg">
<path d="M5.91357 1.02075C5.55459 1.02075 5.26357 1.31177 5.26357 1.67075C5.26357 2.02974 5.55459 2.32075 5.91357 2.32075H10.8024C12.3764 2.32075 13.6524 3.59674 13.6524 5.17075V10.1706C13.6524 10.5295 13.9434 10.8206 14.3024 10.8206C14.6614 10.8206 14.9524 10.5295 14.9524 10.1706V5.17075C14.9524 2.87877 13.0944 1.02075 10.8024 1.02075H5.91357Z" fill="black"/>
<path d="M6.67438 6.66691C7.03336 6.66691 7.32438 6.95792 7.32438 7.31691V8.66691H8.67438C9.03336 8.66691 9.32438 8.95792 9.32438 9.31691C9.32438 9.67589 9.03336 9.96691 8.67438 9.96691H7.32438V11.3169C7.32438 11.6759 7.03336 11.9669 6.67438 11.9669C6.31539 11.9669 6.02438 11.6759 6.02438 11.3169V9.96691H4.67438C4.31539 9.96691 4.02438 9.67589 4.02438 9.31691C4.02438 8.95792 4.31539 8.66691 4.67438 8.66691H6.02438V7.31691C6.02438 6.95792 6.31539 6.66691 6.67438 6.66691Z" fill="black"/>
<path fill-rule="evenodd" clip-rule="evenodd" d="M1.08203 6.12456C1.08203 4.79907 2.15655 3.72455 3.48203 3.72455H9.86673C11.1922 3.72455 12.2667 4.79907 12.2667 6.12455V12.5093C12.2667 13.8347 11.1922 14.9093 9.86674 14.9093H3.48203C2.15655 14.9093 1.08203 13.8347 1.08203 12.5093V6.12456ZM3.48203 5.02455H9.86673C10.4742 5.02455 10.9667 5.51704 10.9667 6.12455V12.5093C10.9667 13.1168 10.4742 13.6093 9.86674 13.6093H3.48203C2.87452 13.6093 2.38203 13.1168 2.38203 12.5093V6.12456C2.38203 5.51704 2.87452 5.02455 3.48203 5.02455Z" fill="black"/>
</svg>

<svg xmlns="http://www.w3.org/2000/svg" width="16" height="16" fill="none" viewBox="0 0 16 16"><path fill="#000" d="M5.914 1.021a.65.65 0 0 0 0 1.3h4.889c1.574 0 2.85 1.276 2.85 2.85v5a.65.65 0 0 0 1.3 0v-5c0-2.292-1.858-4.15-4.15-4.15zm.76 5.646a.65.65 0 0 1 .65.65v1.35h1.35a.65.65 0 0 1 0 1.3h-1.35v1.35a.65.65 0 1 1-1.3 0v-1.35h-1.35a.65.65 0 0 1 0-1.3h1.35v-1.35a.65.65 0 0 1 .65-.65"/><path fill="#000" fill-rule="evenodd" d="M1.082 6.1246c0-1.3255 1.0746-2.4 2.4-2.4h6.3847c1.3255 0 2.4 1.0745 2.4 2.4v6.3847c0 1.3254-1.0745 2.4-2.4 2.4H3.482c-1.3254 0-2.4-1.0746-2.4-2.4zm2.4-1.1h6.3847c.6075 0 1.1.4924 1.1 1.1v6.3847c0 .6075-.4925 1.1-1.1 1.1H3.482c-.6075 0-1.1-.4925-1.1-1.1V6.1246c0-.6076.4925-1.1 1.1-1.1" clip-rule="evenodd"/></svg>
